#define 3bfee3701b814cb9c9b6ed6bbb037573RH52l62MFCYOZ8tx_width 100
#define 3bfee3701b814cb9c9b6ed6bbb037573RH52l62MFCYOZ8tx_height 100
static char 3bfee3701b814cb9c9b6ed6bbb037573RH52l62MFCYOZ8tx_bits[] = {
  0x00, 0x00, 0x00, 0x00, 0x00, 0x00, 0x00, 0x00, 0x00, 0x00, 0x00, 0x00, 
  0x00, 0x00, 0x00, 0x00, 0x00, 0x00, 0x00, 0x00, 0x00, 0x00, 0x00, 0x00, 
  0x00, 0x00, 0x00, 0x00, 0x00, 0x00, 0x00, 0x00, 0x00, 0x00, 0x00, 0x00, 
  0x00, 0x00, 0x00, 0x00, 0x00, 0x00, 0x00, 0x00, 0x00, 0x00, 0x00, 0x00, 
  0x00, 0x00, 0x00, 0x00, 0x00, 0x00, 0x00, 0x00, 0x00, 0x00, 0x00, 0x00, 
  0x00, 0x00, 0x00, 0x00, 0x00, 0x00, 0x00, 0x00, 0x00, 0x00, 0x00, 0x00, 
  0x00, 0x00, 0x00, 0x00, 0x00, 0x00, 0x00, 0x00, 0x00, 0x00, 0x00, 0x00, 
  0x00, 0x00, 0x00, 0x00, 0x00, 0x00, 0x00, 0x00, 0xFF, 0xFF, 0xFF, 0xFF, 
  0xFF, 0x3F, 0x00, 0x00, 0x00, 0x00, 0x00, 0x00, 0x80, 0xFF, 0xFF, 0xFF, 
  0xFF, 0xFF, 0x7F, 0x00, 0x00, 0x00, 0x00, 0x00, 0x00, 0xE0, 0xFF, 0xFF, 
  0xFF, 0xFF, 0xFF, 0xFF, 0x00, 0x00, 0x00, 0x00, 0x00, 0x00, 0xE0, 0x03, 
  0x00, 0x00, 0x00, 0x00, 0xF0, 0x01, 0x00, 0x00, 0x00, 0x00, 0x00, 0xF0, 
  0x00, 0x00, 0x00, 0x00, 0x00, 0xC0, 0x03, 0x00, 0x00, 0x00, 0x00, 0x00, 
  0x70, 0x00, 0x00, 0x00, 0x00, 0x00, 0xC0, 0x03, 0x00, 0x00, 0x00, 0x00, 
  0x00, 0x78, 0x1C, 0xFE, 0x3F, 0x0C, 0xFF, 0x87, 0x03, 0x00, 0x00, 0x00, 
  0x00, 0x00, 0x78, 0x1C, 0xFE, 0x3F, 0x1E, 0xFF, 0x8F, 0x03, 0x00, 0x00, 
  0x00, 0x00, 0x00, 0x78, 0x1C, 0xFE, 0x3F, 0x1E, 0xFF, 0x8F, 0x03, 0x00, 
  0x00, 0x00, 0x00, 0x00, 0x78, 0x1C, 0xFE, 0x3F, 0x0C, 0xFF, 0x87, 0x03, 
  0x00, 0x00, 0x00, 0x00, 0x00, 0x78, 0x00, 0x00, 0x00, 0x00, 0x00, 0x80, 
  0x03, 0x0E, 0x00, 0x00, 0x00, 0x00, 0x78, 0x00, 0x00, 0x00, 0x00, 0x00, 
  0x80, 0x03, 0x0E, 0x00, 0x00, 0x00, 0x00, 0x78, 0x00, 0x00, 0x00, 0x00, 
  0x00, 0x80, 0x03, 0x0E, 0x00, 0x00, 0x00, 0x00, 0x78, 0x1C, 0x8E, 0xFF, 
  0x3F, 0x1C, 0x8F, 0x03, 0x00, 0x00, 0x00, 0x00, 0x00, 0x78, 0x1C, 0x8E, 
  0xFF, 0x3F, 0x1C, 0x8F, 0x03, 0x00, 0x00, 0x00, 0x00, 0x00, 0x78, 0x1C, 
  0x8E, 0xFF, 0x3F, 0x1C, 0x8F, 0x03, 0x00, 0x00, 0x00, 0x00, 0x00, 0x78, 
  0x00, 0x00, 0x00, 0x00, 0x00, 0x80, 0x03, 0x0E, 0x00, 0x00, 0x00, 0x00, 
  0x78, 0x00, 0x00, 0x00, 0x00, 0x00, 0x80, 0x03, 0x0E, 0x00, 0x00, 0x00, 
  0x00, 0x78, 0x00, 0x00, 0x00, 0x00, 0x00, 0x80, 0x03, 0x0E, 0x00, 0x00, 
  0x00, 0x00, 0x78, 0x00, 0x00, 0x00, 0x00, 0x00, 0x80, 0x03, 0x0E, 0x00, 
  0x00, 0x00, 0x00, 0x78, 0xFC, 0xFF, 0xF1, 0x38, 0xFC, 0x8F, 0x03, 0x00, 
  0x00, 0x00, 0x00, 0x00, 0x78, 0xFC, 0xFF, 0xF1, 0x38, 0xFC, 0x8F, 0x03, 
  0x00, 0x00, 0x00, 0x00, 0x00, 0x78, 0xFC, 0xFF, 0xF1, 0x38, 0xFC, 0x8F, 
  0x03, 0x00, 0x00, 0x00, 0x00, 0x00, 0x78, 0x00, 0x00, 0x00, 0x00, 0x00, 
  0x80, 0x03, 0x0E, 0x00, 0x00, 0x00, 0x00, 0x78, 0x00, 0x00, 0x00, 0x00, 
  0x00, 0x80, 0x03, 0x0E, 0x00, 0x00, 0x00, 0x00, 0x78, 0x00, 0x00, 0x00, 
  0x00, 0x00, 0x80, 0x03, 0x0E, 0x00, 0x00, 0x00, 0x00, 0x70, 0x00, 0x00, 
  0x00, 0x00, 0x00, 0x80, 0x03, 0x00, 0xE0, 0xFF, 0xFF, 0x0F, 0xF0, 0x00, 
  0x00, 0x00, 0x00, 0x00, 0xC0, 0x03, 0x00, 0xFC, 0xFF, 0xFF, 0x0F, 0xF0, 
  0x00, 0x00, 0x00, 0x00, 0x00, 0xE0, 0x01, 0x00, 0xFF, 0xFF, 0xFF, 0x0F, 
  0xE0, 0x03, 0x00, 0x00, 0x00, 0x00, 0xF8, 0x01, 0x80, 0xFF, 0xFF, 0xFF, 
  0x0F, 0xC0, 0xFF, 0xFF, 0xFF, 0xFF, 0x07, 0xFE, 0x00, 0x80, 0x07, 0x00, 
  0x00, 0x0E, 0x80, 0xFF, 0xFF, 0xFF, 0xFF, 0x0F, 0x7F, 0x00, 0xC0, 0x03, 
  0x00, 0x00, 0x0E, 0x00, 0xFE, 0xFF, 0xFF, 0xFF, 0x1F, 0x1F, 0x00, 0xE0, 
  0x01, 0x00, 0x00, 0x0E, 0x00, 0x00, 0x00, 0x00, 0x00, 0x3E, 0x0F, 0x00, 
  0xF0, 0x00, 0x00, 0x00, 0x0E, 0x00, 0x00, 0x00, 0x00, 0x00, 0x7C, 0x0F, 
  0x00, 0xF8, 0x00, 0x00, 0x00, 0x0E, 0x00, 0x00, 0x00, 0x00, 0x00, 0xF8, 
  0x0F, 0x00, 0x7C, 0x00, 0x00, 0x00, 0x0E, 0x00, 0x00, 0x00, 0x00, 0x00, 
  0xF0, 0x0F, 0x00, 0x3E, 0x80, 0xFF, 0xFF, 0x0F, 0x00, 0x00, 0x00, 0x00, 
  0x00, 0xE0, 0x0F, 0x00, 0x1E, 0xC0, 0xFF, 0xFF, 0x0F, 0x00, 0x00, 0x00, 
  0x00, 0x00, 0xC0, 0x0F, 0x00, 0x0F, 0xE0, 0xFF, 0xFF, 0x0F, 0x00, 0x00, 
  0x00, 0x00, 0x00, 0x80, 0x0F, 0x00, 0x0F, 0xE0, 0xFF, 0xFF, 0x0F, 0x00, 
  0x00, 0x00, 0x00, 0x00, 0x00, 0x07, 0x00, 0x07, 0xF0, 0xF0, 0x00, 0x0E, 
  0x00, 0x00, 0x00, 0x00, 0x00, 0x00, 0x00, 0x00, 0x07, 0x78, 0x70, 0x1C, 
  0x0E, 0x00, 0x00, 0x00, 0x00, 0x00, 0x00, 0x00, 0x00, 0x0F, 0x3C, 0x78, 
  0x1C, 0x0E, 0x00, 0x00, 0x00, 0x00, 0x00, 0x00, 0x00, 0x00, 0x1E, 0x3E, 
  0x78, 0x1C, 0x0E, 0x00, 0x00, 0x00, 0x00, 0x00, 0x00, 0x00, 0x00, 0xFE, 
  0x1F, 0x70, 0x1C, 0x0E, 0x00, 0x00, 0x00, 0x00, 0x00, 0x00, 0x00, 0xF0, 
  0xFF, 0xFF, 0xF0, 0x00, 0x0E, 0x00, 0x00, 0x00, 0x00, 0x00, 0x00, 0x00, 
  0xF0, 0xFF, 0xFF, 0xF0, 0xFF, 0x0F, 0x00, 0x00, 0x00, 0x00, 0x00, 0x00, 
  0x00, 0xF0, 0xFF, 0xFF, 0xE0, 0xFF, 0x0F, 0x00, 0xC0, 0x07, 0x00, 0x00, 
  0x00, 0x00, 0xE0, 0x01, 0x78, 0xC0, 0xFF, 0x0F, 0x00, 0xF0, 0x1F, 0x00, 
  0x00, 0x00, 0x00, 0xE0, 0x01, 0x78, 0x00, 0xFE, 0x0F, 0x00, 0xF8, 0x7F, 
  0x00, 0x00, 0x87, 0xE3, 0xC1, 0x03, 0x3C, 0x00, 0x00, 0x00, 0x00, 0x7C, 
  0x7C, 0x00, 0x0C, 0x87, 0xE3, 0xC1, 0xFF, 0x3F, 0x00, 0x00, 0x00, 0x00, 
  0x1E, 0xF0, 0x00, 0x1E, 0x87, 0xE3, 0x81, 0xFF, 0x1F, 0x00, 0x00, 0x00, 
  0x00, 0x1E, 0xE0, 0x00, 0x1E, 0x00, 0x00, 0x80, 0xFF, 0x1F, 0x00, 0x00, 
  0x00, 0x00, 0x8E, 0xE3, 0x01, 0x1E, 0x00, 0x00, 0x80, 0xFF, 0x1F, 0x00, 
  0x00, 0x00, 0x00, 0x8F, 0xC3, 0x01, 0x1E, 0x00, 0x00, 0x80, 0x07, 0x1E, 
  0x00, 0x00, 0x00, 0xFE, 0x8F, 0xC3, 0xFF, 0xFF, 0xFF, 0x3F, 0x80, 0x07, 
  0x1E, 0x00, 0x00, 0x00, 0xFF, 0x0F, 0xC0, 0xFF, 0xFF, 0xFF, 0xFF, 0x81, 
  0x07, 0x1E, 0x00, 0x00, 0x00, 0xFF, 0x0F, 0xC0, 0xFF, 0xFF, 0xFF, 0xFF, 
  0x83, 0xFF, 0x1F, 0x00, 0x00, 0x00, 0xFE, 0x0F, 0xC0, 0xFF, 0xFF, 0xFF, 
  0xFF, 0x87, 0xFF, 0x1F, 0x00, 0x00, 0x00, 0x00, 0x0F, 0xC0, 0x01, 0x1F, 
  0x00, 0x80, 0x0F, 0xFF, 0x0F, 0x00, 0x00, 0x00, 0x00, 0x0F, 0xC0, 0x01, 
  0x0F, 0x00, 0x00, 0x0F, 0xF0, 0x00, 0x00, 0x00, 0x00, 0x00, 0x0F, 0xC0, 
  0x01, 0x1F, 0x00, 0x00, 0x1E, 0xF0, 0x00, 0x00, 0x00, 0x00, 0x00, 0x0F, 
  0xC0, 0x01, 0x3E, 0xC0, 0x3F, 0x1C, 0xF0, 0x00, 0x00, 0x00, 0x00, 0x00, 
  0x0F, 0xC0, 0x01, 0x3C, 0xE0, 0x7F, 0x3C, 0xF0, 0x00, 0x00, 0x00, 0x00, 
  0x00, 0x0F, 0xC0, 0x01, 0x3E, 0xE0, 0x7F, 0x38, 0xF0, 0x00, 0x00, 0x00, 
  0x00, 0x00, 0x0F, 0xC0, 0x01, 0x1F, 0xE0, 0x79, 0xF8, 0x7F, 0x00, 0x00, 
  0x00, 0x00, 0x00, 0x0F, 0xC0, 0x01, 0x0F, 0xE0, 0x70, 0xF0, 0x7F, 0x00, 
  0x00, 0x00, 0x00, 0x00, 0x0F, 0xC0, 0x01, 0x0F, 0xE0, 0x70, 0xE0, 0x3F, 
  0x00, 0x00, 0x00, 0x00, 0x00, 0x0F, 0xC0, 0x01, 0x1F, 0xE0, 0x70, 0x80, 
  0x0F, 0x00, 0x00, 0x00, 0x00, 0x00, 0x0F, 0xC0, 0x01, 0x3E, 0xE0, 0x70, 
  0x00, 0x00, 0x00, 0x00, 0x00, 0x00, 0x00, 0x0F, 0xC0, 0x01, 0x3C, 0xE0, 
  0x70, 0x00, 0x00, 0x00, 0x00, 0x00, 0x00, 0x00, 0x0F, 0xC0, 0x01, 0x3E, 
  0xE0, 0x70, 0x00, 0x00, 0x00, 0x00, 0x00, 0x00, 0xFE, 0xFF, 0xFF, 0xFF, 
  0xFF, 0xFF, 0xFF, 0xFF, 0x7F, 0x00, 0x00, 0x00, 0x00, 0xFF, 0xFF, 0xFF, 
  0xFF, 0xFF, 0xFF, 0xFF, 0xFF, 0xFF, 0x00, 0x00, 0x00, 0x00, 0xFF, 0xFF, 
  0xFF, 0xFF, 0xFF, 0xFF, 0xFF, 0xFF, 0xFF, 0x00, 0x00, 0x00, 0x00, 0x0F, 
  0x00, 0x00, 0x00, 0x00, 0x00, 0x00, 0x00, 0xF0, 0x00, 0x00, 0x00, 0x00, 
  0x07, 0x00, 0x00, 0x00, 0x00, 0x00, 0x00, 0x00, 0xF0, 0x00, 0x00, 0x00, 
  0x00, 0x07, 0x00, 0x00, 0x00, 0x00, 0x00, 0x00, 0x00, 0xF0, 0x00, 0x00, 
  0x00, 0x00, 0x07, 0x00, 0x00, 0x00, 0x00, 0x00, 0x00, 0x00, 0xF0, 0x00, 
  0x00, 0x00, 0x00, 0x07, 0x00, 0x00, 0x00, 0x00, 0x00, 0x00, 0x00, 0xF0, 
  0x00, 0x00, 0x00, 0x00, 0x07, 0x00, 0x00, 0x00, 0x00, 0x00, 0x00, 0x00, 
  0xF0, 0x00, 0x00, 0x00, 0x00, 0x07, 0x00, 0x00, 0x00, 0x00, 0x00, 0x00, 
  0x00, 0xF0, 0x00, 0x00, 0x00, 0x00, 0xFF, 0xFF, 0xFF, 0xFF, 0xFF, 0xFF, 
  0xFF, 0xFF, 0xFF, 0x00, 0x00, 0x00, 0x00, 0xFF, 0xFF, 0xFF, 0xFF, 0xFF, 
  0xFF, 0xFF, 0xFF, 0xFF, 0x00, 0x00, 0x00, 0x00, 0xFF, 0xFF, 0xFF, 0xFF, 
  0xFF, 0xFF, 0xFF, 0xFF, 0x7F, 0x00, 0x00, 0x00, 0x00, 0x00, 0x00, 0x00, 
  0x00, 0x00, 0x00, 0x00, 0x00, 0x00, 0x00, 0x00, 0x00, 0x00, 0x00, 0x00, 
  0x00, 0x00, 0x00, 0x00, 0x00, 0x00, 0x00, 0x00, 0x00, 0x00, 0x00, 0x00, 
  0x00, 0x00, 0x00, 0x00, 0x00, 0x00, 0x00, 0x00, 0x00, 0x00, 0x00, 0x00, 
  0x00, 0x00, 0x00, 0x00, 0x00, 0x00, 0x00, 0x00, 0x00, 0x00, 0x00, 0x00, 
  0x00, 0x00, 0x00, 0x00, 0x00, 0x00, 0x00, 0x00, 0x00, 0x00, 0x00, 0x00, 
  0x00, 0x00, 0x00, 0x00, 0x00, 0x00, 0x00, 0x00, 0x00, 0x00, 0x00, 0x00, 
  0x00, 0x00, 0x00, 0x00, 0x00, 0x00, 0x00, 0x00, 0x00, 0x00, 0x00, 0x00, 
  0x00, 0x00, 0x00, 0x00, };
